X:7
T:Lippättätossä-Juiz  F  ABAC
T:Karl Anderhalden  (17.8.1925-7.11.1979)
T:Dirigenten-Notiz, Edi Gasser
C:Unterwalden (CH)
%%partsbox
P:ABAC
M:3/4
R:Naturjodel
L:1/8
K:F
[P:A] "langsam, fliessend"  C/A/ F/d/ | c>f Ad c F/A/ | E>cB2 C/B/ E/d/ | c>e Bd c E/c/ | A3z C/A/F/d/ | 
c>f A d/c/ F/d/ F/c/ | E>cB2 C/B/ E/d/ | c>e BE dc | F4 || 
L:1/8
M:3/4
[P:B]  "_langsam, aber überzeugt" F/f/ d/c/ | A>C Fc A/F/ c/F/ | EBC2 C/e/d/c/ | B>C Ec B/E/ c/E/ | 
Ffc2 F/f/ d/c/ | A>C Fd A/F/ c/F/ | E>cB2 E/e/ d/c/ | B>C Ec e/c/ B/E/ | F4z2 || 
L:1/8
M:3/4
[P:C] "beschleunigter Walzer-Rhythmus"  d>c fc AF | E>c BCE2 | d>c ec BE | F2Afc2 | 
d>c Ac FA | Bd g>f ed | c>c ec BE | F2f4 |] 
%W:Reihenfolge: A-B-A-C
W:
W:notiert Edi Gasser, Angabe: Karl Anderhalden
W:UJV-Naturjodelsammlung: Code-Nr: 09-04
W:http://www.naturjodler.ch/code 09.htm  (with AUDIO)
%May 4, 2018

